!!!COM:	Martini, Johannes
!!!CDT:	~1440///-~1497//
!!!OTL:	Nisi quia Dominus
!!!AGN:	Motet
!!!SCT:	Mar2077
!!!SCA:	Mar2077
!!!voices:	2
**kern	**kern
*staff2	*staff1
*Ivox	*Ivox
*I"Tenor	*I"Superius
*I'T	*I'S
*>[A,B,C,D,E,F,G,H,I,J]	*>[A,B,C,D,E,F,G,H,I,J]
*>A	*>A
*clefGv2	*clefG2
*k[]	*k[]
*M2/1	*M2/1
*met(C)	*met(C)
!!section: Nisi quia
!!!OMD: Nisi quia
=1-	=1-
!!LO:TX:Z=8:t=Choir 1
1A	1a
1A	1a
=2	=2
2c\	2a/
2c\	2a/
2B\	2g/
2A/	2f/
=3	=3
2B\	2g/
1c	1a
2B\	2g/
=4	=4
2G/	2e/
2.A/	2.f/
4G/	4e/
2E/	[2e/
=5	=5
1F	2e/]
.	2d/
1El	1el
=6||	=6||
*>B	*>B
!!section: Cum exsurgerent
!!!OMD: Cum exsurgerent
!!LO:TX:Z=8:t=Choir 2
2A/	2a/
2A/	2a/
2c\	2a/
2c\	2a/
=7	=7
1c	1a
1c	1a
=8	=8
2B\	2g/
2A/	2f/
1B	1g
=9	=9
1A	1a
1r	1r
=10	=10
2c\	2a/
2c\	2a/
1c	1a
=11	=11
2B\	2g/
2A/	2f/
2B\	2g/
[2c\	[2a/
=12	=12
2c\]	2a/]
2B\	2g/
2G/	2e/
[2A/	[2f/
=13	=13
4A/]	2f/]
4G/	.
2E/	1e
1F	.
.	2d/
=14	=14
1El	1el
1r	1r
=15||	=15||
*>C	*>C
!!section: Cum irasceretur
!!!OMD: Cum irasceretur
!!LO:TX:Z=8:t=Choir 1
1A	1a
2c\	2a/
2c\	2a/
=16	=16
2c\	2a/
2c\	2a/
1c	1a
=17	=17
2c\	2a/
2c\	2a/
2c\	2a/
2c\	2a/
=18	=18
2c\	2a/
2c\	2a/
1A	1a
=19	=19
1r	1r
2c\	2a/
2c\	2a/
=20	=20
2c\	2a/
2c\	2a/
1c	1a
=21	=21
2B\	1g
1G	.
.	2e/
2A/	[2f/
=22	=22
2F/	2f/]
1G	1e
4F/	4d/
4E/	4c/
=23	=23
1F	1d
1El	1el
=24||	=24||
*>D	*>D
!!LO:TX:Z=8:t=Choir 2
!!section: Torrentem
!!!OMD: Torrentem
2A/	2a/
2A/	2a/
2c\	2a/
2c\	2a/
=25	=25
2c\	2a/
2c\	2a/
1c	1a
=26	=26
1c	1a
2c\	2a/
2c\	2a/
=27	=27
1c	1a
1B	1g
=28	=28
1r	1r
1A	1a
=29	=29
2c\	2a/
2c\	2a/
2c\	2a/
2c\	2a/
=30	=30
1c	1a
1c	1a
=31	=31
1B	1g
2A/	2f/
2B\	2g/
=32	=32
1c	1a
1A	1a
=33	=33
1r	1r
1c	1a
=34	=34
2c\	2a/
2G/	2g/
2A/	2f/
2B\	2g/
=35	=35
2c\	2a/
2B\	2g/
2G/	2e/
[2A/	[2f/
=36	=36
2A/]	2f/]
2G/	1e
1F	.
.	2d/
=37	=37
1El	1el
1r	1r
=38||	=38||
*>E	*>E
!!section: Benedictus Dominus
!!!OMD: Benedictus Dominus
!!LO:TX:Z=8:t=Choir 1
2A/	2a/
2A/	2a/
2c\	2a/
2c\	2a/
=39	=39
2c\	2a/
2c\	2a/
1c	1a
=40	=40
1r	1r
2c\	2a/
2c\	2a/
=41	=41
2c\	2a/
2c\	2a/
1c	1a
=42	=42
2B\	2g/
2A/	2f/
2B\	2g/
[2c\	[2a/
=43	=43
2c\]	2a/]
2B\	2g/
2G/	2e/
2A/	[2f/
=44	=44
2F/	2f/]
1G	1e
4F/	4d/
4E/	4c/
=45	=45
1F	1d
1El	1el
=46||	=46||
*>F	*>F
!!section: Anima nostra
!!!OMD: Anima nostra
!!LO:TX:Z=8:t=Choir 2
2A/	2a/
2A/	2a/
2c\	2a/
2c\	2a/
=47	=47
1c	1a
2c\	2a/
2c\	2a/
=48	=48
2c\	2a/
2c\	2a/
1c	1a
=49	=49
2B\	2g/
2A/	2f/
1B	1g
=50	=50
1A	1a
1r	1r
=51	=51
1c	1a
2c\	2a/
2c\	2a/
=52	=52
1c	1a
2G/	2g/
2A/	2f/
=53	=53
2B\	2g/
1c	1a
2B\	2g/
=54	=54
2G/	2e/
2.A/	1f
4G/	.
2E/	[2e/
=55	=55
1F	2e/]
.	2d/
1El	1el
=56||	=56||
*>G	*>G
!!section: Laqueus contritus est
!!!OMD: Laqueus contritus est
!!LO:TX:Z=8:t=Choir 1
2A/	2a/
2A/	2a/
2c\	2a/
2c\	2a/
=57	=57
2c\	2a/
2c\	2a/
1c	1a
=58	=58
1r	1r
1c	1a
=59	=59
2B\	2g/
1G	2g/
.	2e/
2A/	[2f/
=60	=60
2F/	2f/]
2.G/	1e
4F/	.
2E/	4d/
.	4c/
=61	=61
1F	1d
1El	1el
=62||	=62||
*>H	*>H
!!section: Adjutorium nostrum
!!!OMD: Adjutorium nostrum
!!LO:TX:Z=8:t=Choir 2
2A/	2a/
2A/	2a/
2c\	2a/
2c\	2a/
=63	=63
2c\	2a/
2c\	2a/
1c	1a
=64	=64
2c\	2a/
2c\	2a/
2c\	2a/
2c\	2a/
=65	=65
2c\	2a/
2c\	2a/
1A	1a
=66	=66
1r	1r
2c\	2a/
2c\	2a/
=67	=67
2c\	2a/
2c\	2a/
1c	1a
=68	=68
2.G/	1g
4F/	.
2G/	2e/
[2A/	[2f/
=69	=69
4A/]	2f/]
4G/	.
2E/	1e
1F	.
.	2d/
=70	=70
1El	1el
1r	1r
=71||	=71||
*>I	*>I
!!section: Gloria Patri
!!!OMD: Gloria Patri
!!LO:TX:Z=8:t=Choir 1
2A/	2a/
2A/	2a/
2c\	2a/
2c\	2a/
=72	=72
2c\	2a/
2c\	2a/
2c\	2a/
2c\	2a/
=73	=73
1A	1a
1r	1r
=74	=74
1c	1a
2B\	2g/
2c\	[2a/
=75	=75
1A	2a/]
.	4g/
.	4f/
2G/	2e/
[2A/	[2f/
=76	=76
4A/]	4f/]
4G/	4e/
2E/	1e
1F	.
.	2d/
=77	=77
1El	1el
1r	1r
=78||	=78||
*>J	*>J
!!LO:TX:Z=8:t=Choir 2
!!section: Sicut erat
!!!OMD: Sicut erat
1A	1f
1B	1g
=79	=79
2c\	2a/
2c\	2a/
2c\	2a/
2c\	2a/
=80	=80
2c\	2a/
2c\	2a/
1A	1a
=81	=81
2B\	2g/
2c\	2a/
2d\	2b\
2c\	[2cc\
=82	=82
1A	2cc\]
.	1a
1B	.
.	2g#i/
=83	=83
1A	1a
1r	1r
=84	=84
2c\	2a/
2c\	2a/
2c\	2a/
2c\	2a/
=85	=85
1c	1a
2c\	2a/
2c\	2a/
=86	=86
2B\	2g/
2A/	2f/
2B\	2g/
2c\	[2a/
=87	=87
1A	2a/]
.	4g/
.	4f/
2G/	2e/
[2A/	[2f/
=88	=88
4A/]	4f/]
4G/	4e/
2E/	1e
1F	.
.	2d/
=89	=89
0El	0el
==	==
*-	*-
!!!RDF**kern: l=long note in original notation
!!!RDF**kern: i=editorial accidental
!!!ENC:	Chris Gage 02-10-2014
!!!END:	2014/10/05/
!!!EED:	Jesse Rodin
!!!EEV:	2014/10/18/
!!!ONB:	Translated from MusicXML and edited on 2014/10/18/ by Craig Sapp
!!muse2ps: C^@{COM}^i2I150v85,150Q16
